src/Components/Object/images/endtimer.svg

<svg width="48" height="47" viewBox="0 0 48 47" fill="none" xmlns="http://www.w3.org/2000/svg">
<path d="M24.5 9.7502C33.3688 9.7502 40.5417 16.9231 40.5417 25.7919C40.5417 27.7169 40.175 29.5731 39.5563 31.2919L43.0396 34.7752C44.3688 32.0481 45.125 29.0231 45.125 25.7919C45.125 14.4023 35.8896 5.16686 24.5 5.16686C21.2688 5.16686 18.2437 5.92311 15.5167 7.25228L19 10.7356C20.7188 10.1169 22.575 9.7502 24.5 9.7502ZM47.4167 9.10853L36.875 0.262695L33.9188 3.76895L44.4604 12.6148L47.4167 9.10853ZM3.69167 1.24811L0.78125 4.18145L3.82917 7.22936L1.28542 9.36061L4.53958 12.6148L7.08333 10.4606L8.91667 12.2939C5.77708 15.9148 3.875 20.6356 3.875 25.7919C3.875 37.1814 13.0875 46.4169 24.5 46.4169C29.6563 46.4169 34.3771 44.5148 37.9979 41.3752L43.0396 46.4169L45.95 43.5064L5.91458 3.49395L3.69167 1.24811ZM34.7438 38.1439C31.9708 40.4356 28.3958 41.8335 24.5 41.8335C15.6313 41.8335 8.45833 34.6606 8.45833 25.7919C8.45833 21.896 9.85625 18.321 12.1479 15.5481L34.7438 38.1439ZM15.3792 3.51686L12.125 0.262695L10.1542 1.88978L13.4083 5.14395L15.3792 3.51686Z" fill="#BCBCBC"/>
</svg>

<svg width="48" height="47" fill="none" xmlns="http://www.w3.org/2000/svg"><path d="M24.5 9.75a16.03 16.03 0 0 1 15.06 21.54l3.48 3.49A20.63 20.63 0 0 0 15.52 7.26L19 10.73c1.72-.62 3.57-.99 5.5-.99Zm22.92-.64L36.87.26l-2.95 3.5 10.54 8.85 2.96-3.5ZM3.69 1.25.8 4.18l3.04 3.05-2.54 2.13 3.25 3.25 2.54-2.15 1.84 1.83A20.61 20.61 0 0 0 38 41.37l5.04 5.05 2.91-2.91L5.91 3.49 3.7 1.25Zm31.05 36.9a16.05 16.05 0 0 1-22.6-22.6l22.6 22.6ZM15.38 3.51 12.12.26 10.15 1.9l3.26 3.25 1.97-1.62Z" fill="#BCBCBC"/></svg>
